X: 14004
T: The ANTRIMS' HORNPIPE
C: Bob McQuillen 5 May'09
B: Bob's Note Book 14 #4
%R: hornpipe, reel
%D:2009
Z: 2020 John Chambers <jc:trillian.mit.edu>
M: C
L: 1/8
K: G	% and D
Bc \
| d2de dcBA | BGBd edBG | ABAF D2cB | ABcd edBc |
| dedB dcBA | G2Bd edBG | FGAB cDEF | G2B2 G2  :| [K:D]
|: FG \
| AFAB A2de | fafd B2ef | g2ge cAde | fdBd AFDF |
| AFAB A2de | fafd B2ef | gfed cABc | d2f2 d2  :|
%%begintext align
%% Tim and Carol
%% Antrim of Roxbury (NH) have been regulars at
%% the Monday Night Dance in Nelson for such a
%% long time that they have surely earned their own
%% tune. This being so, here it is. Finally! And it
%% comes to you both with all good wishes from Bob -
%%endtext

%%sep 1 1 500

%%sep 1 1 500

